icon-svg/usb-smart-adaptor.svg

<svg xmlns="http://www.w3.org/2000/svg" viewBox="0 0 24 24"><path fill="#44739e" d="M12.818 5.418a4 4 0 0 0 1.152-.072V4.337h-1.299v1.009c.147.043.065-.01.147.072m0-1.009h1.081a2.8 2.8 0 0 1-.072.865h-1.009Zm-2.81.937h1.299V4.337h-1.299Zm.144-.937h1.008v.797h-1.008Zm8.73 3.034a.177.177 0 0 0-.177-.177h-3.942V3.76a6.3 6.3 0 0 0-.072-1.729h-3.675a6.6 6.6 0 0 0-1.799.072v5.163H5.294a.176.176 0 0 0-.176.177v3.57h13.764Zm-7.433-.177H9.431V2.247h2.522v.649l-.5-.072v1.008l.5-.072v3.245a1.4 1.4 0 0 0-.5-.144Zm3.099 0h-3.027v-.261a3.6 3.6 0 0 0 .576.144V4.55c0-.279.066-.781-.072-.937-.1-.07-.263.045-.5.072v-.717l.576.072v-.793h2.45Zm-9.43 4.349v10.208a.177.177 0 0 0 .176.177h13.411a.177.177 0 0 0 .177-.177V11.615ZM12 12.965a.452.452 0 1 1-.451.451.45.45 0 0 1 .451-.451m0 1.692a.451.451 0 1 1-.451.45.45.45 0 0 1 .451-.45m0 5.144a1.334 1.334 0 1 1 1.333-1.334A1.333 1.333 0 0 1 12 19.801"/></svg>

<svg xmlns="http://www.w3.org/2000/svg" fill="#44739e" width="24" height="24" viewBox="0 0 24 24">
  <path id="Colore_riempimento_1" data-name="Colore riempimento 1" class="cls-1" d="M 12.818,5.412 A 3.983,3.983 0 0 0 13.971,5.34 V 4.331 h -1.3 V 5.34 c 0.147,0.043 0.065,-0.01 0.147,0.072 z m 0,-1.009 H 13.9 a 2.811,2.811 0 0 1 -0.072,0.865 h -1.01 z M 10.007,5.34 h 1.3 V 4.331 h -1.3 z M 10.151,4.403 H 11.16 V 5.2 h -1.009 z m 8.733,3.035 A 0.177,0.177 0 0 0 18.707,7.261 H 14.764 V 3.754 a 6.3,6.3 0 0 0 -0.072,-1.73 h -3.676 a 6.591,6.591 0 0 0 -1.8,0.072 V 7.261 H 5.292 A 0.176,0.176 0 0 0 5.116,7.438 v 3.571 H 18.884 Z M 11.449,7.261 H 9.43 V 2.24 h 2.523 v 0.649 l -0.5,-0.072 v 1.009 l 0.5,-0.072 V 7 a 1.371,1.371 0 0 0 -0.5,-0.144 z m 3.1,0 H 11.521 V 7 a 3.592,3.592 0 0 0 0.576,0.144 v -2.6 c 0,-0.279 0.066,-0.781 -0.072,-0.937 -0.1,-0.07 -0.263,0.045 -0.5,0.072 V 2.961 l 0.576,0.072 V 2.24 h 2.451 z m -9.433,4.35 V 21.823 A 0.177,0.177 0 0 0 5.292,22 h 13.415 a 0.177,0.177 0 0 0 0.177,-0.177 V 11.611 Z M 12,12.962 A 0.452,0.452 0 1 1 11.549,13.413 0.451,0.451 0 0 1 12,12.962 Z m 0,1.692 A 0.451,0.451 0 1 1 11.549,15.105 0.451,0.451 0 0 1 12,14.654 Z M 12,19.8 A 1.334,1.334 0 1 1 13.333,18.466 1.333,1.333 0 0 1 12,19.8 Z"/>
</svg>
